X:134
T:16th Regt March. JJo.132, The
B:J.Jones MS,1801,N.Shrops.
A:N Shropshire
Z:Neil Brookes 2006
M:4/4
L:1/8
Q:1/4=160
K:C
c2G>B e2c>e|g2e>g c'4|a2c'>a g2c'>g|g>fe>de2c2|
a2c'>a g2c'>a|g>fe>de2c2|e>fg>g agfe|d2g>gg2z2|
e>fg>g agfe|e2d>dd2c'2|c'bag bag^f|g2g>gg4:|
|:d/e/d/e/ ff gfed|e/f/e/f/ gg agfe|d/e/d/e/ ff gfed|Te2d>dd4|
g/a/g/f/ e/f/e/d/ c2c2|g_bag a4|a/_b/a/g/ f/g/f/e/ d2d2|ac'bab4|
c'2g>gg2c'g|(3agf e>ee2 (3gab|c'>c'b>a g>fe>d|c2c>cc4:|





